X:1
T:Title
%%score { ( 1 3 ) | ( 2 4 ) }
L:1/8
M:6/8
K:C
V:1 treble nm="Grand Piano"
V:3 treble 
V:2 bass 
V:4 bass 
V:1
 z3 z2[Q:1/4=84] [EG] | [EG][FA][EG] [Ec]2 [CE]/[DF]/ | [EG][FA][EG] E2 G/c/ | B6 | c6 | %5
 [EG][FA][EG] [Ec]2 [CE]/[DF]/ | [EG][FA][EG] E2 G/c/ | B6 |[M:5/8] c-c- c3 |[M:1/8] [Ec]/[Ec]/ | %10
[M:3/4] [Ac]>[Ac] [Ac][Ac] [GB][CFA] | [CFA]<[CEG]- [CEG]/[G,CE]/ [CEG]2 [Ec]/[Ec]/ | %12
 [Ac]>[Ac] [Ac][Ac] [GB][CFA] | [CFA]<[CEG]- [CEG]/[G,CE]/ [CEG]2 G/c/ | B6 | c6 | %16
 [Ge]>[Gd] [Gc] d2 A/B/ |[M:5/8] [Ec]-[Ec]- [Ec]3 |] %18
V:2
 z3 z2 [C,C] | [C,C][C,C][C,C] [C,G,]2 [C,G,]/[C,G,]/ | [C,C][C,C][C,C] [C,G,C]2[K:treble] E/E/ | %3
 F6 | E6[K:bass] | [C,C][C,C][C,C] [C,G,]2 [C,G,]/[C,G,]/ | %6
 [C,C][C,C][C,C] [C,G,C]2[K:treble] E/E/ | F6 |[M:5/8][K:bass] E-E- E3 |[M:1/8] [C,G,]/[C,G,]/ | %10
[M:3/4] F,>F, F,F, F,F, | C,<C,- C,/C,/ C,2 [C,G,]/[C,G,]/ | F,>F, F,F, F,F, | %13
 C,<C,- C,/C,/ C,2[K:treble] E/E/ | F6 | E6[K:bass] | %16
 [C,C]>[D,B,] [E,C][K:treble] [F,A,F]2 [G,F]/[G,F]/ |[M:5/8][K:bass] [C,G,]-[C,G,]- [C,G,]3 |] %18
V:3
 x6 | x6 | x6 | z2 D/D/ D2 B/d/ | z2 G,/G,/ G,2 [EG] | x6 | x6 | z2 D/D/ D2 B/d/ | %8
[M:5/8] z2 G,/G,/ G,2 |[M:1/8] x |[M:3/4] x6 | x6 | x6 | x6 | z2 D/D/ D2 B/d/ | %15
 z2 G,/G,/ G,2 [EG] | x6 |[M:5/8] x5 |] %18
V:4
 x6 | x6 | x5[K:treble] x | z2 G,/G,/ G,2 F/F/ | z2[K:bass] C,/C,/ C,2 [C,C] | x6 | %6
 x5[K:treble] x | z2 G,/G,/ G,2 F/F/ |[M:5/8][K:bass] z2 C,/C,/ C,2 |[M:1/8] x |[M:3/4] x6 | x6 | %12
 x6 | x5[K:treble] x | z2 G,/G,/ G,2 F/F/ | z2[K:bass] C,/C,/ C,2 [C,C] | x3[K:treble] x3 | %17
[M:5/8][K:bass] x5 |] %18

